assets/images/ywc18/icon/ywc_facebook_hover.svg

<svg width="72" height="72" fill="none" xmlns="http://www.w3.org/2000/svg"><g filter="url(#filter0_bdi)" stroke="#F2F6FC" stroke-width="2"><circle cx="36" cy="36" r="25"/><path d="M44.3333 31.3031h-5.582v-3.1819c0-1.6418.1331-2.6759 2.4751-2.6759h2.958v-5.059c-1.4394-.1496-2.8867-.2228-4.3357-.2196-4.2961 0-7.4315 2.6362-7.4315 7.4757v3.6607h-4.7506v6.3636l4.7506-.0016v14.3197h6.3341V37.6619l4.8552-.0016.7268-6.3572z"/></g><defs><filter id="filter0_bdi" x="0" y="0" width="72" height="72" filterUnits="userSpaceOnUse" color-interpolation-filters="sRGB"><feFlood flood-opacity="0" result="BackgroundImageFix"/><feGaussianBlur in="BackgroundImage" stdDeviation="2.5"/><feComposite in2="SourceAlpha" operator="in" result="effect1_backgroundBlur"/><feColorMatrix in="SourceAlpha" values="0 0 0 0 0 0 0 0 0 0 0 0 0 0 0 0 0 0 127 0"/><feOffset/><feGaussianBlur stdDeviation="5"/><feColorMatrix values="0 0 0 0 1 0 0 0 0 0.364706 0 0 0 0 0.160784 0 0 0 1 0"/><feBlend in2="effect1_backgroundBlur" result="effect2_dropShadow"/><feBlend in="SourceGraphic" in2="effect2_dropShadow" result="shape"/><feColorMatrix in="SourceAlpha" values="0 0 0 0 0 0 0 0 0 0 0 0 0 0 0 0 0 0 127 0" result="hardAlpha"/><feOffset dy="4"/><feGaussianBlur stdDeviation="10"/><feComposite in2="hardAlpha" operator="arithmetic" k2="-1" k3="1"/><feColorMatrix values="0 0 0 0 1 0 0 0 0 0.364706 0 0 0 0 0.160784 0 0 0 0.6 0"/><feBlend in2="shape" result="effect3_innerShadow"/></filter></defs></svg>

<svg width="72" height="72" viewBox="0 0 72 72" fill="none" xmlns="http://www.w3.org/2000/svg">
<g filter="url(#filter0_bdi)">
<circle cx="36" cy="36" r="25" stroke="#F2F6FC" stroke-width="2"/>
<path d="M44.3333 31.3031H38.7513V28.1212C38.7513 26.4794 38.8844 25.4453 41.2264 25.4453H44.1844V20.3863C42.745 20.2367 41.2977 20.1635 39.8487 20.1667C35.5526 20.1667 32.4172 22.8029 32.4172 27.6424V31.3031H27.6666V37.6667L32.4172 37.6651V51.9848H38.7513V37.6619L43.6065 37.6603L44.3333 31.3031Z" stroke="#F2F6FC" stroke-width="2"/>
</g>
<defs>
<filter id="filter0_bdi" x="0" y="0" width="72" height="72" filterUnits="userSpaceOnUse" color-interpolation-filters="sRGB">
<feFlood flood-opacity="0" result="BackgroundImageFix"/>
<feGaussianBlur in="BackgroundImage" stdDeviation="2.5"/>
<feComposite in2="SourceAlpha" operator="in" result="effect1_backgroundBlur"/>
<feColorMatrix in="SourceAlpha" type="matrix" values="0 0 0 0 0 0 0 0 0 0 0 0 0 0 0 0 0 0 127 0"/>
<feOffset/>
<feGaussianBlur stdDeviation="5"/>
<feColorMatrix type="matrix" values="0 0 0 0 1 0 0 0 0 0.364706 0 0 0 0 0.160784 0 0 0 1 0"/>
<feBlend mode="normal" in2="effect1_backgroundBlur" result="effect2_dropShadow"/>
<feBlend mode="normal" in="SourceGraphic" in2="effect2_dropShadow" result="shape"/>
<feColorMatrix in="SourceAlpha" type="matrix" values="0 0 0 0 0 0 0 0 0 0 0 0 0 0 0 0 0 0 127 0" result="hardAlpha"/>
<feOffset dy="4"/>
<feGaussianBlur stdDeviation="10"/>
<feComposite in2="hardAlpha" operator="arithmetic" k2="-1" k3="1"/>
<feColorMatrix type="matrix" values="0 0 0 0 1 0 0 0 0 0.364706 0 0 0 0 0.160784 0 0 0 0.6 0"/>
<feBlend mode="normal" in2="shape" result="effect3_innerShadow"/>
</filter>
</defs>
</svg>
